X:135
T:Lindisfarne
R:waltz
C:Matt Seattle 1990
M:3/4
L:1/8
K:D
A2 |:d3 efg | a3 fdA | B2 g2 e2 | d2 c2 A2 |
   |d3 efg |a3 fdA | B2 g2 f2| e4  fg |
   |a3 fdA| B3 Bgf  | e3 dcB | A3  efg |
   |a3 fdA| B2 g2 e2 |A2 d2  c2| d4 f2|
   |e3 fge | a3 fdA |B2g2e2 | d2c2A2 |
   |e3 fge | a3 gfe | B2g2f2 | e3 efg |
   |a3 fdA | B3 Bgf  | e3 dcB | A3  efg |
   |a3  fdA| B2 g2 e2 |A2 d2 c2| d4 A2 :|
